dist/img/svg/mail.svg

<svg width="18" height="14" viewBox="0 0 18 14" fill="none" xmlns="http://www.w3.org/2000/svg">
<path d="M17.5 1.75C17.5 0.7875 16.7125 0 15.75 0H1.75C0.7875 0 0 0.7875 0 1.75V12.25C0 13.2125 0.7875 14 1.75 14H15.75C16.7125 14 17.5 13.2125 17.5 12.25V1.75ZM15.75 1.75L8.75 6.125L1.75 1.75H15.75ZM15.75 12.25H1.75V3.5L8.75 7.875L15.75 3.5V12.25Z" fill="#2A2A2A"/>
</svg>

<svg width="18" height="14" viewBox="0 0 18 14" fill="none" xmlns="http://www.w3.org/2000/svg"><path d="M17.5 1.75C17.5.787 16.712 0 15.75 0h-14C.787 0 0 .787 0 1.75v10.5C0 13.213.787 14 1.75 14h14c.962 0 1.75-.787 1.75-1.75V1.75zm-1.75 0l-7 4.375-7-4.375h14zm0 10.5h-14V3.5l7 4.375 7-4.375v8.75z" fill="#2A2A2A"/></svg>
